assets/opensea.svg

<svg xmlns="http://www.w3.org/2000/svg" xmlns:xlink="http://www.w3.org/1999/xlink" viewBox="0,0,256,256" width="96px" height="96px"><g fill="none" fill-rule="nonzero" stroke="none" stroke-width="1" stroke-linecap="butt" stroke-linejoin="miter" stroke-miterlimit="10" stroke-dasharray="" stroke-dashoffset="0" font-family="none" font-weight="none" font-size="none" text-anchor="none" style="mix-blend-mode: normal"><g transform="scale(5.33333,5.33333)"><circle cx="24" cy="24" r="20" fill="#060708"></circle><path d="M12,27h7c0,1.491 0.515,2 2,2h7c0.84,0 2.157,-0.287 2.707,-1.316l6.178,-1.798l0.115,1.678c-1.074,0.407 -1.979,0.648 -3.612,3.327c-2.25,3.327 -2.605,3.109 -5.33,3.109h-9.058c-4.08,0 -7,-3 -7,-7z" fill="#ffffff"></path><path d="M19.172,16.034c3.587,4.483 -0.172,8.966 -0.172,8.966h-6z" fill="#ffffff"></path><path d="M21,27h7c0,0 8.207,-5.448 -1.655,-11.724c-2.69,-0.897 -6.345,-1.276 -6.345,-1.276c0,0 6,7 1,13z" fill="#ffffff"></path><path d="M25,12v0c-0.552,0 -1,0.448 -1,1v17h2v-17c0,-0.552 -0.448,-1 -1,-1z" fill="#ffffff"></path></g></g></svg>

<svg xmlns="http://www.w3.org/2000/svg"  viewBox="0 0 48 48" width="96px" height="96px" baseProfile="basic"><circle cx="24" cy="24" r="20" fill="#1565c0"/><path fill="#fff" d="M12,27h7c0,1.491,0.515,2,2,2h7c0.84,0,2.157-0.287,2.707-1.316l6.178-1.798L37,27.564	c-1.074,0.407-1.979,0.648-3.612,3.327C31.138,34.218,30.783,34,28.058,34H19C14.92,34,12,31,12,27L12,27z"/><path fill="#fff" d="M19.172,16.034C22.759,20.517,19,25,19,25h-6L19.172,16.034z"/><path fill="#fff" d="M21,27h7c0,0,8.207-5.448-1.655-11.724C23.655,14.379,20,14,20,14S26,21,21,27z"/><path fill="#fff" d="M25,12L25,12c-0.552,0-1,0.448-1,1v17h2V13C26,12.448,25.552,12,25,12z"/></svg>
